src/components/Sponsors/logos/xing.svg

<svg width="102" height="40" viewBox="0 0 102 40" fill="none" xmlns="http://www.w3.org/2000/svg">
<path d="M10.2871 22.464L14.4258 14.7607C14.6172 14.3779 14.8086 14.0908 15.311 14.0908H19.689C19.8804 14.0908 20.0239 14.1626 20.0957 14.3061C20.1435 14.3779 20.1675 14.4497 20.1675 14.5454C20.1675 14.6411 20.1435 14.7368 20.0957 14.8085L13.6603 26.531C13.6603 26.531 13.6603 26.531 13.6603 26.5549C13.6603 26.5549 13.6603 26.5549 13.6603 26.5789L20.4545 38.8755C20.5024 38.9712 20.5263 39.0669 20.5263 39.1387C20.5263 39.2344 20.5024 39.3061 20.4545 39.3779C20.3828 39.5214 20.2392 39.5932 20.0478 39.5932H15.6699C15.1675 39.5932 15 39.3061 14.7847 38.9234L10.2871 30.6458L10.2632 30.6219C10.2632 30.6219 10.2392 30.6219 10.2392 30.6458L5.74163 38.9234C5.55024 39.3061 5.35885 39.5932 4.85646 39.5932H0.478468C0.287081 39.5932 0.143541 39.5214 0.0717703 39.3779C-0.0239234 39.2344 -0.0239234 39.043 0.0717703 38.8755L6.86603 26.5789V26.5549L0.430622 14.8324C0.334928 14.665 0.334928 14.4736 0.430622 14.3301C0.502392 14.1865 0.645932 14.1147 0.83732 14.1147H5.21531C5.76555 14.1147 5.93301 14.4497 6.10048 14.7846L10.2392 22.488C10.2632 22.464 10.2632 22.4879 10.2871 22.464C10.2871 22.464 10.2871 22.4879 10.2871 22.464Z" fill="url(#paint0_linear)"/>
<path d="M44.4494 29.354C44.4734 29.354 44.4734 29.3301 44.4734 29.3301V14.7607C44.4734 14.3779 44.7604 14.1147 45.1193 14.1147H48.6121C48.9949 14.1147 49.2581 14.4018 49.2581 14.7607V38.9473C49.2581 39.3301 48.971 39.5932 48.6121 39.5932H44.9758C44.4973 39.5932 44.2581 39.2344 44.0906 38.9234L36.5308 24.354L36.5069 24.3301C36.4829 24.3301 36.4829 24.354 36.4829 24.354V38.9234C36.4829 39.3061 36.1959 39.5693 35.837 39.5693H32.3442C31.9614 39.5693 31.6982 39.2822 31.6982 38.9234V14.7607C31.6982 14.3779 31.9853 14.1147 32.3442 14.1147H35.9805C36.5308 14.1147 36.6982 14.4497 36.8657 14.7846L44.4255 29.354H44.4494Z" fill="url(#paint1_linear)"/>
<path d="M22.9902 38.9234V14.7607C22.9902 14.3779 23.2773 14.1147 23.6362 14.1147H27.129C27.5118 14.1147 27.7749 14.4018 27.7749 14.7607V38.9473C27.7749 39.3301 27.4878 39.5932 27.129 39.5932H23.6362C23.2534 39.5932 22.9902 39.3061 22.9902 38.9234Z" fill="url(#paint2_linear)"/>
<path d="M63.7079 18.2056C61.7701 18.2056 60.2868 18.6362 59.0667 20.287C57.9184 21.842 57.2964 23.8276 57.2964 26.7224C57.2964 29.4496 57.416 31.6984 58.349 33.1817C59.282 34.6649 60.7414 35.574 62.6552 35.574C64.7605 35.574 66.3155 35.0238 66.3395 34.9999L66.3634 34.976V29.5932C66.3634 29.5693 66.3634 29.5693 66.3395 29.5693H62.7031C62.3203 29.5693 62.0572 29.2822 62.0572 28.8994V25.7654C62.0572 25.3826 62.3442 25.0956 62.7031 25.0956H70.5261C70.9088 25.0956 71.1959 25.3826 71.1959 25.7654C71.1959 25.7654 71.1959 37.9903 71.1959 38.0382C70.9328 38.1817 67.1528 39.9999 62.4399 39.9999C58.5404 39.9999 56.3155 38.5166 54.7605 36.4831C52.9662 34.1147 52.3203 30.287 52.3203 26.6984C52.3203 24.1865 52.6552 21.8181 53.5404 19.8085C54.4734 17.6554 55.9327 16.0764 57.5356 15.1434C59.306 14.1147 61.4591 13.7559 63.4686 13.7559H64.0428C67.2246 13.7559 69.1624 14.5214 69.8084 14.8324C70.3107 15.0956 70.4782 15.287 70.4782 15.6219V18.6362C70.4782 18.8516 70.4064 19.019 70.2868 19.1147C70.1672 19.2104 69.9997 19.2582 69.7844 19.1865C68.5404 18.7798 66.6744 18.2056 64.1385 18.2056H63.7079V18.2056Z" fill="url(#paint3_linear)"/>
<path d="M97.1299 0.0239249C96.5318 0.0239249 96.2926 0.406698 96.0773 0.76555C96.0773 0.76555 87.5605 15.8852 87.2734 16.3876C87.2974 16.4115 92.8954 26.6986 92.8954 26.6986C93.0868 27.0574 93.3978 27.4641 93.9959 27.4641H97.9433C98.1825 27.4641 98.3739 27.3684 98.4696 27.201C98.5653 27.0335 98.5653 26.8182 98.4696 26.5789L92.8954 16.3876V16.3636L101.651 0.885167C101.771 0.669856 101.771 0.454547 101.651 0.263159C101.556 0.0956952 101.364 0 101.125 0H97.1299V0.0239249Z" fill="url(#paint4_linear)"/>
<path d="M80.5026 5.43066C80.2634 5.43066 80.072 5.52636 79.9763 5.69382C79.8806 5.86129 79.8806 6.0766 79.9763 6.31583L82.6557 10.9331V10.957L78.4452 18.3732C78.3256 18.5886 78.3256 18.8039 78.4452 18.9953C78.5409 19.1627 78.7323 19.2584 78.9715 19.2584H82.9428C83.5409 19.2584 83.804 18.8756 83.9954 18.4929C83.9954 18.4929 88.1102 11.2201 88.2777 10.957C88.2538 10.9331 85.5504 6.22014 85.5504 6.22014C85.3591 5.86129 85.048 5.45459 84.45 5.45459H80.5026V5.43066Z" fill="url(#paint5_linear)"/>
<defs>
<linearGradient id="paint0_linear" x1="10.3199" y1="14.0908" x2="14.8382" y2="34.8927" gradientUnits="userSpaceOnUse">
<stop stop-color="#F7FCFF" stop-opacity="0.3"/>
<stop offset="1" stop-color="#F7FCFF" stop-opacity="0.1"/>
</linearGradient>
<linearGradient id="paint1_linear" x1="40.5267" y1="14.1147" x2="45.7133" y2="34.5619" gradientUnits="userSpaceOnUse">
<stop stop-color="#F7FCFF" stop-opacity="0.3"/>
<stop offset="1" stop-color="#F7FCFF" stop-opacity="0.1"/>
</linearGradient>
<linearGradient id="paint2_linear" x1="25.3958" y1="14.1147" x2="36.2494" y2="25.7735" gradientUnits="userSpaceOnUse">
<stop stop-color="#F7FCFF" stop-opacity="0.3"/>
<stop offset="1" stop-color="#F7FCFF" stop-opacity="0.1"/>
</linearGradient>
<linearGradient id="paint3_linear" x1="61.8103" y1="13.7559" x2="66.9551" y2="34.9221" gradientUnits="userSpaceOnUse">
<stop stop-color="#F7FCFF" stop-opacity="0.3"/>
<stop offset="1" stop-color="#F7FCFF" stop-opacity="0.1"/>
</linearGradient>
<linearGradient id="paint4_linear" x1="94.5473" y1="2.75912e-08" x2="101.56" y2="21.1315" gradientUnits="userSpaceOnUse">
<stop stop-color="#F7FCFF" stop-opacity="0.3"/>
<stop offset="1" stop-color="#F7FCFF" stop-opacity="0.1"/>
</linearGradient>
<linearGradient id="paint5_linear" x1="83.344" y1="5.43066" x2="86.0604" y2="16.5801" gradientUnits="userSpaceOnUse">
<stop stop-color="#F7FCFF" stop-opacity="0.3"/>
<stop offset="1" stop-color="#F7FCFF" stop-opacity="0.1"/>
</linearGradient>
</defs>
</svg>

<svg width="102" height="40" fill="none" xmlns="http://www.w3.org/2000/svg"><path d="M10.287 22.464l4.139-7.703c.191-.383.383-.67.885-.67h4.378c.191 0 .335.072.407.215a.482.482 0 0 1 0 .502L13.66 26.532v.048l6.794 12.297a.623.623 0 0 1 .072.263.404.404 0 0 1-.072.239c-.071.143-.215.215-.406.215H15.67c-.502 0-.67-.287-.885-.67l-4.498-8.277-.024-.024s-.024 0-.024.024l-4.497 8.277c-.192.383-.383.67-.886.67H.478c-.19 0-.334-.072-.406-.215a.475.475 0 0 1 0-.502l6.794-12.297v-.024L.431 14.832a.475.475 0 0 1 0-.502c.071-.143.215-.215.406-.215h4.378c.55 0 .718.335.885.67l4.14 7.703c.023-.024.023 0 .047-.024 0 0 0 .024 0 0z" fill="url(#paint0_linear)"/><path d="M44.45 29.354c.023 0 .023-.024.023-.024V14.76c0-.382.287-.645.646-.645h3.493c.383 0 .646.287.646.646v24.186a.629.629 0 0 1-.646.646h-3.636c-.479 0-.718-.359-.885-.67l-7.56-14.569-.024-.024c-.024 0-.024.024-.024.024v14.57a.629.629 0 0 1-.646.645h-3.493a.629.629 0 0 1-.646-.646V14.761c0-.383.287-.646.646-.646h3.636c.55 0 .718.335.886.67l7.56 14.569h.023z" fill="url(#paint1_linear)"/><path d="M22.99 38.923V14.761c0-.383.287-.646.646-.646h3.493c.383 0 .646.287.646.646v24.186a.629.629 0 0 1-.646.646h-3.493c-.383 0-.646-.287-.646-.67z" fill="url(#paint2_linear)"/><path d="M63.708 18.206c-1.938 0-3.421.43-4.641 2.081-1.149 1.555-1.77 3.54-1.77 6.435 0 2.728.119 4.976 1.052 6.46.933 1.483 2.392 2.392 4.306 2.392 2.105 0 3.66-.55 3.684-.574l.024-.024v-5.383c0-.024 0-.024-.023-.024h-3.637c-.383 0-.646-.287-.646-.67v-3.134c0-.382.287-.67.646-.67h7.823c.383 0 .67.288.67.67v12.273C70.933 38.182 67.153 40 62.44 40c-3.9 0-6.124-1.483-7.68-3.517-1.794-2.368-2.44-6.196-2.44-9.785 0-2.512.335-4.88 1.22-6.89.933-2.153 2.393-3.732 3.996-4.665 1.77-1.028 3.923-1.387 5.933-1.387h.574c3.182 0 5.12.765 5.765 1.076.503.264.67.455.67.79v3.014c0 .216-.072.383-.191.479-.12.095-.287.143-.503.072-1.244-.407-3.11-.981-5.646-.981h-.43z" fill="url(#paint3_linear)"/><path d="M97.13.024c-.598 0-.837.383-1.053.742 0 0-8.516 15.12-8.804 15.622.024.023 5.622 10.31 5.622 10.31.192.36.503.766 1.1.766h3.948c.24 0 .43-.096.527-.263.095-.168.095-.383 0-.622l-5.575-10.191v-.024L101.651.885c.12-.215.12-.43 0-.622-.095-.167-.287-.263-.526-.263H97.13v.024z" fill="url(#paint4_linear)"/><path d="M80.503 5.43c-.24 0-.431.096-.527.264-.095.167-.095.383 0 .622l2.68 4.617v.024l-4.21 7.416c-.12.216-.12.43 0 .622.095.168.286.263.526.263h3.97c.599 0 .862-.382 1.053-.765 0 0 4.115-7.273 4.283-7.536-.024-.024-2.728-4.737-2.728-4.737-.19-.359-.502-.765-1.1-.765h-3.947V5.43z" fill="url(#paint5_linear)"/><defs><linearGradient id="paint0_linear" x1="10.32" y1="14.091" x2="14.838" y2="34.893" gradientUnits="userSpaceOnUse"><stop stop-color="#F7FCFF" stop-opacity=".3"/><stop offset="1" stop-color="#F7FCFF" stop-opacity=".1"/></linearGradient><linearGradient id="paint1_linear" x1="40.527" y1="14.115" x2="45.713" y2="34.562" gradientUnits="userSpaceOnUse"><stop stop-color="#F7FCFF" stop-opacity=".3"/><stop offset="1" stop-color="#F7FCFF" stop-opacity=".1"/></linearGradient><linearGradient id="paint2_linear" x1="25.396" y1="14.115" x2="36.249" y2="25.773" gradientUnits="userSpaceOnUse"><stop stop-color="#F7FCFF" stop-opacity=".3"/><stop offset="1" stop-color="#F7FCFF" stop-opacity=".1"/></linearGradient><linearGradient id="paint3_linear" x1="61.81" y1="13.756" x2="66.955" y2="34.922" gradientUnits="userSpaceOnUse"><stop stop-color="#F7FCFF" stop-opacity=".3"/><stop offset="1" stop-color="#F7FCFF" stop-opacity=".1"/></linearGradient><linearGradient id="paint4_linear" x1="94.547" x2="101.56" y2="21.131" gradientUnits="userSpaceOnUse"><stop stop-color="#F7FCFF" stop-opacity=".3"/><stop offset="1" stop-color="#F7FCFF" stop-opacity=".1"/></linearGradient><linearGradient id="paint5_linear" x1="83.344" y1="5.431" x2="86.06" y2="16.58" gradientUnits="userSpaceOnUse"><stop stop-color="#F7FCFF" stop-opacity=".3"/><stop offset="1" stop-color="#F7FCFF" stop-opacity=".1"/></linearGradient></defs></svg>
